X:1
T:Slava v vychnikh bogou-1.-
T:Slava v vychnikh bogou
T:Mikhaïl STROKINE 1832-1887 
%%score [ 1 2 3 4 ]
L:1/8
Q:1/4=80
M:4/4
K:Eb
V:1 treble nm="Soprano" snm="S."
V:2 treble nm="Alto" snm="A."
V:3 treble-8 nm="Ténor" snm="T."
V:4 bass nm="Basse" snm="B."
V:1
!f! c3 G G2 G2 | A4 G2 F2 | G2 G2 (FE DF) | E4 =B2 B2 | c4 G4 |[M:2/4]!mf! A2 GF |[M:4/4] E4 D4 | %7
w: Sla- vav vych- nikh|Bo- gou i|na ziem- li _ _ _|mir vtchié- lo-|vié tsekh|bla- go- vo|lié ni|
 E6 z2 :|!f! c3 c c2 c2 | c4 c2 c2 | c2 c2 (dc =Bd) | c4 =B2 B2 | !fermata!d4!>(! c4!>)! | %13
w: ié|Sla- vav- vych- nikh|Bo- gou i|na ziém li _ _ _|mir vtchié- lo|vié- tsekh|
[M:2/4] c2"^Rall" cc |[M:4/4] c4 =B4 | !fermata!c6 z2 ||[M:4/4] z8 | z8 | z8 | z8 |[M:2/4] z4 | %21
w: bla- go- vo-|lié ni-|ié.||||||
[M:4/4] z8 | z8 | z8 ||!p! D3 D D2 F2 | E3 E E2 E2 | F2 FG D2 F2 | F3 E E2 z2 |[M:2/4] G2 G2 | %29
w: |||Gos- po- di ous-|tnié mo- i ot|vier- zé- chy i ou|sta mo- ia|voz vié|
[M:4/4] (A2 G2 F2) z F | (E2 G2)!pp! !fermata!F4 | !fermata!E6 z2 |] %32
w: stiat _ _ khva|lou * Tvo-|iou|
V:2
 E3 E E2 E2 | F4 E2 D2 | E2 E2 (DC =B,D) | C4 D2 D2 | E4 E4 |[M:2/4] F2 ED |[M:4/4] C4 =B,4 | %7
w: Sla- vav vych- nikh|Bo- gou i|na ziem- li _ _ _|mir vtchié- lo-|vié tsekh|bla- go- vo|lié ni|
 C6 z2 :| G3 G G2 G2 | A4 G2 F2 | G2 G2 G4 | G4 G2 G2 | !fermata!G4 G4 |[M:2/4] F2 GA | %14
w: ié|Sla- vav- vych- nikh|Bo- gou i|na ziém li|mir vtchié- lo|vié- tsekh|bla- go- vo-|
[M:4/4] G4 F4 | !fermata!E6 z2 ||[M:4/4]!p! D3 D D2 D2 | G3 F E2 E2 | F2 FG D2 F2 | F3 E E4 | %20
w: lié ni-|ié.|Gos- po- di ous-|tnié mo- i ot-|vièr- zé- chy i ou-|sta mo ia|
[M:2/4]!pp! G2!<(! E2!<)! |[M:4/4] (((F2 G2 A2))) z!p! F | G4!>(! F4!>)! | !fermata!E6 z2 || %24
w: voz- vié-|stiat _ _ khva-|lou Tvo-|iou|
!p! =B,3 B, B,2 D2 | C3 C C2 C2 | D2 DE =B,2 D2 | D3 C C2 z2 |[M:2/4] E2 E2 | %29
w: Gos- po- di ous-|tnié mo- i ot|vier- zé- chy i ou|sta mo- ia|voz vié|
[M:4/4] (F2 E2 D2) z D | (C2 E2) !fermata!D4 |!pp! !fermata!C6 z2 |] %32
w: stiat _ _ khva|lou * Tvo-|iou|
V:3
 G3 G c2 c2 | c4 c2 c2 | c2 G2 G4 | G4 G2 G2 | G2 c2 c4 |[M:2/4] c2 BA |[M:4/4] G4 G4 | G6 z2 :| %8
w: Sla- vav vych- nikh|Bo- gou i|na ziem- li|mir vtchié- lo-|vié * tsekh|bla- go- vo|lié ni|ié|
 e3 e e2 e2 | f4 e2 d2 | e2 c2 (fe df) | e4 d2 d2 | !fermata!f4 e4 |[M:2/4] c2 cc |[M:4/4] e4 d4 | %15
w: Sla- vav- vych- nikh|Bo- gou i|na ziém li _ _ _|mir vtchié- lo|vié- tsekh|bla- go- vo-|lié ni-|
 !fermata!c6 z2 ||[M:4/4] =B3 B B2 B2 | c3 =B c2 c2 | d2 de =B2 d2 | d3 c c4 |[M:2/4] c2 c2 | %21
w: ié.|Gos- po- di ous-|tnié mo- i ot-|vièr- zé- chy i ou-|sta mo ia|voz- vié-|
[M:4/4] c6 z c | e4!>(! d4!>)! | !fermata!c6 z2 ||!p! G3 G G2 G2 | G3 G G2 G2 | G2 GG G2 G2 | %27
w: stiat khva-|lou Tvo-|iou|Gos- po- di ous-|tnié mo- i ot|vier- zé- chy i ou|
 G3 G G2 z2 |[M:2/4] c2 c2 |[M:4/4] (c4 A2) z A | G4 !fermata!G4 |!pp! !fermata!G6 z2 |] %32
w: sta mo- ia|voz vié|stiat _ khva|lou Tvo-|iou|
V:4
 C,3 C, C,2 C,2 | C,4 C,2 C,2 | C,2 C,2 (G,2 G,,2) | C,4 G,,2 G,,2 | C,4 C,4 |[M:2/4] F,,2 F,,F,, | %6
w: Sla- vav vych- nikh|Bo- gou i|na ziem- li _|mir vtchié- lo-|vié tsekh|bla- go- vo|
[M:4/4] G,,4 G,,4 | C,6 z2 :| C,3 C, C2 C2 | C4 C2 C2 | C2 E,2 G,4 | C4 G,2 G,2 | %12
w: lié ni|ié|Sla- vav- vych- nikh|Bo- gou i|na ziém li|mir vtchié- lo|
 !fermata!=B,4 C4 |[M:2/4] A,2 G,F, |[M:4/4] G,4 G,,4 | !fermata!C,6 z2 ||[M:4/4] G,3 G, G,2 F,2 | %17
w: vié- tsekh|bla- go- vo-|lié ni-|ié.|Gos- po- di ous-|
 E,3 D, C,2 C,2 | G,2 G,G, G,2 G,2 | C,3 C, C,4 |[M:2/4] E,2 G,2 |[M:4/4] (A,2 G,2 F,2) z A, | %22
w: tnié mo- i ot-|vièr- zé- chy i ou-|sta mo ia|voz- vié-|stiat _ _ khva-|
 G,4!>(! G,,4!>)! | !fermata!C,6 z2 ||!p! G,,3 G,, G,,2 G,,2 | C,3 C, C,2 C,2 | %26
w: lou Tvo-|iou|Gos- po- di ous-|tnié mo- i ot|
 G,,2 G,,G,, G,,2 G,,2 | C,3 C, C,2 z2 |[M:2/4] C,2 C,2 |[M:4/4] F,,6 z F,, | %30
w: vier- zé- chy i ou|sta mo- ia|voz vié|stiat khva|
 G,,4!pp! !fermata!G,,4 | !fermata!C,6 z2 |] %32
w: lou Tvo-|iou|

